static/assets/images/networks/neon-evm-mono.svg

<svg width="256" height="256" viewBox="0 0 256 256" fill="none" xmlns="http://www.w3.org/2000/svg">
<path d="M120.114 109.29L12.9415 2.18807C12.1327 1.37989 10.515 0.571475 9.70616 0.167382C8.08846 -0.236711 6.47077 0.167375 5.2575 0.571468C3.63981 0.97556 2.42653 2.18807 1.61769 3.40058C0.80884 5.01718 0.404428 6.22969 0.404428 7.84629V126.264C4.52593e-06 127.073 0 127.478 0 128.287V248.724C0 249.533 4.52593e-06 250.747 0.404428 251.554L0.404449 251.554C0.808865 252.362 1.21328 253.171 2.02211 253.979C2.82643 254.784 3.63074 255.187 4.43505 255.59L4.44864 255.597C5.25749 255.597 6.47078 256 7.27963 256H7.68403H128.607C129.415 256 130.629 256 131.438 255.597L131.451 255.59C132.256 255.187 133.06 254.784 133.864 253.979C134.673 253.171 135.077 252.362 135.482 251.554C135.886 250.747 135.886 249.533 135.886 248.724V146.877L243.058 253.979C243.463 254.788 244.676 255.191 245.485 255.597C246.698 256 247.507 256 248.72 256C249.529 256 250.743 256 251.551 255.597L251.565 255.59C252.369 255.187 253.174 254.784 253.978 253.979C254.787 253.171 255.191 252.362 255.596 251.554C256 250.747 256 249.939 256 248.725V248.724V128.287V127.478V7.84629V7.8461C256 7.03792 256 5.82554 255.596 5.01719L255.595 5.01658C255.191 4.2086 254.787 3.40038 253.978 2.5924C253.169 1.78398 252.36 1.37988 251.551 0.975792C250.743 0.975792 249.529 0.571468 248.72 0.571468H248.316H247.912H127.393C126.585 0.571468 125.371 0.57147 124.562 0.975792C123.754 1.37988 122.945 1.78398 122.136 2.5924C121.327 3.40038 120.923 4.2086 120.518 5.01658L120.518 5.01719C120.114 5.8256 120.114 7.0381 120.114 7.84629V109.29Z" fill="black"/>
</svg>

<svg xmlns="http://www.w3.org/2000/svg" fill="none" viewBox="0 0 256 256"><path fill="#000" d="M120.114 109.29 12.942 2.188c-.81-.808-2.427-1.617-3.236-2.02-1.618-.405-3.235 0-4.448.403-1.618.405-2.831 1.617-3.64 2.83C.808 5.017.404 6.23.404 7.846v118.418C0 127.073 0 127.478 0 128.287v120.437c0 .809 0 2.023.404 2.83.405.808.81 1.617 1.618 2.425.804.805 1.609 1.208 2.413 1.611l.014.007c.808 0 2.022.403 2.83.403h121.328c.808 0 2.022 0 2.831-.403l.013-.007c.805-.403 1.609-.806 2.413-1.611.809-.808 1.213-1.617 1.618-2.425.404-.807.404-2.021.404-2.83V146.877l107.172 107.102c.405.809 1.618 1.212 2.427 1.618 1.213.403 2.022.403 3.235.403.809 0 2.023 0 2.831-.403l.014-.007c.804-.403 1.609-.806 2.413-1.611.809-.808 1.213-1.617 1.618-2.425.404-.807.404-1.615.404-2.829V7.846c0-.808 0-2.02-.404-2.829h-.001c-.404-.808-.808-1.617-1.617-2.425S252.36 1.38 251.551.976c-.808 0-2.022-.405-2.831-.405H127.393c-.808 0-2.022 0-2.831.405-.808.404-1.617.808-2.426 1.616s-1.213 1.617-1.618 2.425c-.404.809-.404 2.021-.404 2.83z"/></svg>
